X: 487
T: AS THROUGH THE WOODS I ROAMED
B: O'Neill's 487
Z: 1999 by John Chambers <jc@trillian.mit.edu>
N: "Moderate"
N: Collected by "J.O'Neill"
M: C
L: 1/8
K:Gm
(GF) \
| D2 G2 G2 FG | A2 A2 f2 dc | B2 B2 B2 G2 | c3 A F3 A |
| G2 G2 G2 FG | A2 A2 f3 d | d>c AG A3 G | G4 G2 ||
|| dc \
| d2 g2 g2 fg | a2 g2 g2 fg | a2 gf d2 cd | =e3 f d3 e |
| g2 dc A2 G2 | Ac d=e f3 a | gf dc A3 G | G4 G2 |]


